SVG_Azure_All/Virtual Machine SQL High Availability.svg

<?xml version="1.0" encoding="UTF-8" standalone="no"?>
<!-- Generated by Microsoft Visio, SVG Export Virtual Machine SQL High Availability.svg Page-1 -->

<svg
   xmlns:dc="http://purl.org/dc/elements/1.1/"
   xmlns:cc="http://creativecommons.org/ns#"
   xmlns:rdf="http://www.w3.org/1999/02/22-rdf-syntax-ns#"
   xmlns:svg="http://www.w3.org/2000/svg"
   xmlns="http://www.w3.org/2000/svg"
   xmlns:sodipodi="http://sodipodi.sourceforge.net/DTD/sodipodi-0.dtd"
   xmlns:inkscape="http://www.inkscape.org/namespaces/inkscape"
   width="0.7874952in"
   height="0.70477569in"
   viewBox="0 0 56.699562 50.744002"
   xml:space="preserve"
   class="st12"
   version="1.1"
   id="svg105"
   sodipodi:docname="Virtual Machine SQL High Availability.svg"
   style="font-size:12px;overflow:visible;color-interpolation-filters:sRGB;fill:none;fill-rule:evenodd;stroke-linecap:square;stroke-miterlimit:3"
   inkscape:version="0.92.5 (2060ec1f9f, 2020-04-08)"><metadata
   id="metadata109"><rdf:RDF><cc:Work
       rdf:about=""><dc:format>image/svg+xml</dc:format><dc:type
         rdf:resource="http://purl.org/dc/dcmitype/StillImage" /></cc:Work></rdf:RDF></metadata><sodipodi:namedview
   pagecolor="#ffffff"
   bordercolor="#666666"
   borderopacity="1"
   objecttolerance="10"
   gridtolerance="10"
   guidetolerance="10"
   inkscape:pageopacity="0"
   inkscape:pageshadow="2"
   inkscape:window-width="640"
   inkscape:window-height="480"
   id="namedview107"
   showgrid="false"
   inkscape:zoom="1.4886629"
   inkscape:cx="37.801251"
   inkscape:cy="33.724099"
   inkscape:window-x="0"
   inkscape:window-y="0"
   inkscape:window-maximized="0"
   inkscape:current-layer="svg105" />
	<style
   type="text/css"
   id="style2">
	<![CDATA[
		.st1 {fill:#83b9f9;stroke:none;stroke-linecap:butt;stroke-width:34}
		.st2 {fill:url(#grad0-8);stroke:none;stroke-linecap:butt;stroke-width:34}
		.st3 {fill:#848484;stroke:none;stroke-linecap:butt;stroke-width:34}
		.st4 {fill:#e8e8e8;stroke:none;stroke-linecap:butt;stroke-width:34}
		.st5 {fill:#9e9e9e;stroke:none;stroke-linecap:butt;stroke-width:34}
		.st6 {fill:url(#grad0-22);stroke:none;stroke-linecap:butt;stroke-width:34}
		.st7 {fill:url(#grad0-26);stroke:none;stroke-linecap:butt;stroke-width:34}
		.st8 {fill:#50e6ff;stroke:none;stroke-linecap:butt;stroke-width:34}
		.st9 {fill:#c3f1ff;stroke:none;stroke-linecap:butt;stroke-width:34}
		.st10 {fill:#9cebff;stroke:none;stroke-linecap:butt;stroke-width:34}
		.st11 {fill:none;stroke:none;stroke-linecap:butt;stroke-width:34}
		.st12 {fill:none;fill-rule:evenodd;font-size:12px;overflow:visible;stroke-linecap:square;stroke-miterlimit:3}
	]]>
	</style>

	<defs
   id="Patterns_And_Gradients">
		<linearGradient
   id="grad0-8"
   x1="-0.0037297723"
   y1="119.79638"
   x2="24.356518"
   y2="119.79638"
   gradientTransform="scale(1.2124065,0.82480589)"
   gradientUnits="userSpaceOnUse">
			<stop
   offset="0"
   stop-color="#a8a8a8"
   stop-opacity="1"
   id="stop4" />
			<stop
   offset="1"
   stop-color="#e6e6e6"
   stop-opacity="1"
   id="stop6" />
		</linearGradient>
		<linearGradient
   id="grad0-22"
   x1="0"
   y1="153.49557"
   x2="10.70257"
   y2="153.49557"
   gradientTransform="scale(1.3809767,0.72412515)"
   gradientUnits="userSpaceOnUse">
			<stop
   offset="0.15"
   stop-color="#cccccc"
   stop-opacity="1"
   id="stop9" />
			<stop
   offset="1"
   stop-color="#707070"
   stop-opacity="1"
   id="stop11" />
		</linearGradient>
		<linearGradient
   id="grad0-26"
   x1="0"
   y1="115.63475"
   x2="28.51467"
   y2="115.63475"
   gradientTransform="scale(1.2123584,0.82483859)"
   gradientUnits="userSpaceOnUse">
			<stop
   offset="0"
   stop-color="#0078d4"
   stop-opacity="1"
   id="stop14" />
			<stop
   offset="0.82"
   stop-color="#5ea0ef"
   stop-opacity="1"
   id="stop16" />
		</linearGradient>
	</defs>
	<g
   id="g103"
   transform="translate(-33.995765,-33.99865)">
		<title
   id="title20">Page-1</title>
		<g
   id="group313-1"
   transform="translate(34,-34.0157)">
			<title
   id="title22">Virtual Machine SQL High Availability</title>
			<g
   id="group314-2">
				<title
   id="title24">High_availability</title>
				<g
   id="shape315-3"
   transform="translate(3.12372)">
					<title
   id="title26">Sheet.315</title>
					<path
   d="m 15.05,72.33 a 0.51187,0.520649 0 0 1 0,0.737586 L 10.99,76.86 c -0.37,0.33 -0.64,0.21 -0.64,-0.29 V 74.66 A 0.495464,0.503962 -180 0 0 9.834849,74.179401 5.87666,5.97745 -180 0 0 3.42,81.42 c 0,0 0,0.03 0,0.05 A 0.495464,0.503962 0 0 1 2.924536,81.970624 L 0.47,81.97 A 0.492183,0.500624 0 0 1 7.86e-4,81.446013 C 0.23,71.66 7.27,71.01 9.8,71.01 a 0.492183,0.500624 -180 0 0 0.492183,-0.500624 L 10.29,68.48 c 0,-0.49 0.28,-0.61 0.62,-0.28 l 4.05,4.07 a 0.515151,0.523987 0 0 1 0.08859,0.06675 z m 10.92,42.11 a 0.51187,0.520649 0 0 1 0,-0.73759 L 30.03,109.92 c 0.36,-0.34 0.66,-0.22 0.66,0.28 v 1.91 a 0.495464,0.503962 -180 0 0 0.515151,0.4806 A 5.87666,5.97745 -180 0 0 37.61,105.35 c 0,0 0,-0.03 0,-0.04 a 0.495464,0.503962 0 0 1 0.495464,-0.50062 L 40.57,104.81 a 0.492183,0.500624 0 0 1 0.469214,0.52399 C 40.8,115.11 33.77,115.77 31.25,115.77 h -0.03 a 0.492183,0.500624 -180 0 0 -0.492183,0.50062 L 30.73,118.29 c 0,0.5 -0.27,0.61 -0.62,0.28 l -4.06,-4.06 a 0.515151,0.523987 0 0 1 -0.08203,-0.0667 z"
   class="st1"
   id="path28"
   inkscape:connector-curvature="0"
   style="fill:#83b9f9;stroke:none;stroke-width:34;stroke-linecap:butt" />
				</g>
				<g
   id="shape316-5"
   transform="translate(0,-13.1698)">
					<title
   id="title31">Sheet.316</title>
					<path
   d="m 0,117.91 a 0.974545,0.991259 -180 0 0 0.974522,0.99124 L 28.55,118.9 a 0.974545,0.991259 -180 0 0 0.974522,-0.99124 L 29.53,99.8 A 0.974545,0.991259 -180 0 0 28.555478,98.808764 L 0.97,98.81 a 0.974545,0.991259 -180 0 0 -0.974522,0.991236 z"
   class="st2"
   id="path33"
   inkscape:connector-curvature="0"
   style="fill:url(#grad0-8);stroke:none;stroke-width:34;stroke-linecap:butt" />
				</g>
				<g
   id="shape317-9"
   transform="translate(14.7786,-17.375)">
					<title
   id="title36">Sheet.317</title>
					<path
   d="m 4.91,110.12 v 5.84 L 0,118.9 v -5.85 z"
   class="st3"
   id="path38"
   inkscape:connector-curvature="0"
   style="fill:#848484;stroke:none;stroke-width:34;stroke-linecap:butt" />
				</g>
				<g
   id="shape318-11"
   transform="translate(9.84038,-23.219)">
					<title
   id="title41">Sheet.318</title>
					<path
   d="M 9.84,115.96 4.94,118.9 0,115.96 4.94,113.02 Z"
   class="st4"
   id="path43"
   inkscape:connector-curvature="0"
   style="fill:#e8e8e8;stroke:none;stroke-width:34;stroke-linecap:butt" />
				</g>
				<g
   id="shape319-13"
   transform="translate(9.84038,-17.375)">
					<title
   id="title46">Sheet.319</title>
					<path
   d="m 4.94,113.05 v 5.85 L 0,115.96 v -5.84 z"
   class="st5"
   id="path48"
   inkscape:connector-curvature="0"
   style="fill:#9e9e9e;stroke:none;stroke-width:34;stroke-linecap:butt" />
				</g>
				<g
   id="shape320-15"
   transform="translate(9.84038,-17.375)">
					<title
   id="title51">Sheet.320</title>
					<path
   d="m 0,115.96 4.94,-2.91 v 5.85 z"
   class="st4"
   id="path53"
   inkscape:connector-curvature="0"
   style="fill:#e8e8e8;stroke:none;stroke-width:34;stroke-linecap:butt" />
				</g>
				<g
   id="shape321-17"
   transform="translate(14.7786,-17.375)">
					<title
   id="title56">Sheet.321</title>
					<path
   d="M 4.91,115.96 0,113.05 v 5.85 z"
   class="st5"
   id="path58"
   inkscape:connector-curvature="0"
   style="fill:#9e9e9e;stroke:none;stroke-width:34;stroke-linecap:butt" />
				</g>
				<g
   id="shape322-19"
   transform="translate(7.38931,-5.4568)">
					<title
   id="title61">Sheet.322</title>
					<path
   d="m 13.3,117.23 c -2.92,-0.48 -3.02,-2.63 -3.02,-6.08 H 4.47 c 0,3.42 0,5.6 -3.03,6.08 A 1.71608,1.74551 -180 0 0 0,118.9 h 14.78 a 1.71608,1.74551 -180 0 0 -1.48,-1.67 z"
   class="st6"
   id="path63"
   inkscape:connector-curvature="0"
   style="fill:url(#grad0-22);stroke:none;stroke-width:34;stroke-linecap:butt" />
				</g>
				<g
   id="shape323-23"
   transform="translate(22.1253,-25.9423)">
					<title
   id="title66">Sheet.323</title>
					<path
   d="m 0,117.74 a 1.14189,1.16148 -180 0 0 1.14,1.16 h 32.29 a 1.14189,1.16148 -180 0 0 1.14,-1.16 V 96.54 A 1.14189,1.16148 -180 0 0 33.43,95.38 H 1.14 A 1.14189,1.16148 -180 0 0 0,96.54 Z"
   class="st7"
   id="path68"
   inkscape:connector-curvature="0"
   style="fill:url(#grad0-26);stroke:none;stroke-width:34;stroke-linecap:butt" />
				</g>
				<g
   id="shape324-27"
   transform="translate(39.4304,-30.8618)">
					<title
   id="title71">Sheet.324</title>
					<path
   d="m 5.74,108.62 v 6.84 L 0,118.9 v -6.84 z"
   class="st8"
   id="path73"
   inkscape:connector-curvature="0"
   style="fill:#50e6ff;stroke:none;stroke-width:34;stroke-linecap:butt" />
				</g>
				<g
   id="shape325-29"
   transform="translate(33.6489,-37.7037)">
					<title
   id="title76">Sheet.325</title>
					<path
   d="M 11.52,115.46 5.78,118.9 0,115.46 5.78,112.02 Z"
   class="st9"
   id="path78"
   inkscape:connector-curvature="0"
   style="fill:#c3f1ff;stroke:none;stroke-width:34;stroke-linecap:butt" />
				</g>
				<g
   id="shape326-31"
   transform="translate(33.6489,-30.8618)">
					<title
   id="title81">Sheet.326</title>
					<path
   d="m 5.78,112.06 v 6.84 L 0,115.46 v -6.84 z"
   class="st10"
   id="path83"
   inkscape:connector-curvature="0"
   style="fill:#9cebff;stroke:none;stroke-width:34;stroke-linecap:butt" />
				</g>
				<g
   id="shape327-33"
   transform="translate(33.6489,-30.8618)">
					<title
   id="title86">Sheet.327</title>
					<path
   d="m 0,115.46 5.78,-3.4 v 6.84 z"
   class="st9"
   id="path88"
   inkscape:connector-curvature="0"
   style="fill:#c3f1ff;stroke:none;stroke-width:34;stroke-linecap:butt" />
				</g>
				<g
   id="shape328-35"
   transform="translate(39.4304,-30.8618)">
					<title
   id="title91">Sheet.328</title>
					<path
   d="M 5.74,115.46 0,112.06 v 6.84 z"
   class="st10"
   id="path93"
   inkscape:connector-curvature="0"
   style="fill:#9cebff;stroke:none;stroke-width:34;stroke-linecap:butt" />
				</g>
				<g
   id="shape329-37"
   transform="translate(30.7778,-16.9011)">
					<title
   id="title96">Sheet.329</title>
					<path
   d="m 15.57,116.94 c -3.42,-0.56 -3.54,-3.08 -3.54,-7.12 h -6.8 c 0,4 0,6.56 -3.54,7.12 A 2.00483,2.03921 -180 0 0 0,118.9 h 17.3 a 2.00811,2.04255 -180 0 0 -1.73,-1.96 z"
   class="st11"
   id="path98"
   inkscape:connector-curvature="0"
   style="fill:none;stroke:none;stroke-width:34;stroke-linecap:butt" />
				</g>
			</g>
		</g>
	</g>
</svg>

<?xml version="1.0" encoding="UTF-8" standalone="no"?>
<!DOCTYPE svg PUBLIC "-//W3C//DTD SVG 1.1//EN" "http://www.w3.org/Graphics/SVG/1.1/DTD/svg11.dtd">
<!-- Generated by Microsoft Visio, SVG Export Virtual Machine SQL High Availability.svg Page-1 -->
<svg xmlns="http://www.w3.org/2000/svg" xmlns:xlink="http://www.w3.org/1999/xlink" xmlns:ev="http://www.w3.org/2001/xml-events"
		width="1.73185in" height="1.65137in" viewBox="0 0 124.693 118.899" xml:space="preserve" color-interpolation-filters="sRGB"
		class="st12">
	<style type="text/css">
	<![CDATA[
		.st1 {fill:#83b9f9;stroke:none;stroke-linecap:butt;stroke-width:34}
		.st2 {fill:url(#grad0-8);stroke:none;stroke-linecap:butt;stroke-width:34}
		.st3 {fill:#848484;stroke:none;stroke-linecap:butt;stroke-width:34}
		.st4 {fill:#e8e8e8;stroke:none;stroke-linecap:butt;stroke-width:34}
		.st5 {fill:#9e9e9e;stroke:none;stroke-linecap:butt;stroke-width:34}
		.st6 {fill:url(#grad0-22);stroke:none;stroke-linecap:butt;stroke-width:34}
		.st7 {fill:url(#grad0-26);stroke:none;stroke-linecap:butt;stroke-width:34}
		.st8 {fill:#50e6ff;stroke:none;stroke-linecap:butt;stroke-width:34}
		.st9 {fill:#c3f1ff;stroke:none;stroke-linecap:butt;stroke-width:34}
		.st10 {fill:#9cebff;stroke:none;stroke-linecap:butt;stroke-width:34}
		.st11 {fill:none;stroke:none;stroke-linecap:butt;stroke-width:34}
		.st12 {fill:none;fill-rule:evenodd;font-size:12px;overflow:visible;stroke-linecap:square;stroke-miterlimit:3}
	]]>
	</style>

	<defs id="Patterns_And_Gradients">
		<linearGradient id="grad0-8" x1="0" y1="0" x2="1" y2="0" gradientTransform="rotate(-90 0.5 0.5)">
			<stop offset="0" stop-color="#a8a8a8" stop-opacity="1"/>
			<stop offset="1" stop-color="#e6e6e6" stop-opacity="1"/>
		</linearGradient>
		<linearGradient id="grad0-22" x1="0" y1="0" x2="1" y2="0" gradientTransform="rotate(-90 0.5 0.5)">
			<stop offset="0.15" stop-color="#cccccc" stop-opacity="1"/>
			<stop offset="1" stop-color="#707070" stop-opacity="1"/>
		</linearGradient>
		<linearGradient id="grad0-26" x1="0" y1="0" x2="1" y2="0" gradientTransform="rotate(-90 0.5 0.5)">
			<stop offset="0" stop-color="#0078d4" stop-opacity="1"/>
			<stop offset="0.82" stop-color="#5ea0ef" stop-opacity="1"/>
		</linearGradient>
	</defs>
	<g>
		<title>Page-1</title>
		<g id="group313-1" transform="translate(34,-34.0157)">
			<title>Virtual Machine SQL High Availability</title>
			<g id="group314-2">
				<title>High_availability</title>
				<g id="shape315-3" transform="translate(3.12372,1.42109E-14)">
					<title>Sheet.315</title>
					<path d="M15.05 72.33 a0.51187 0.520649 0 0 1 -4.44089E-14 0.737586 L10.99 76.86 C10.62 77.19 10.35 77.07 10.35
								 76.57 L10.35 74.66 a0.495464 0.503962 -180 0 0 -0.515151 -0.480599 A5.87666 5.97745 -180 0 0 3.42
								 81.42 C3.42 81.42 3.42 81.45 3.42 81.47 a0.495464 0.503962 0 0 1 -0.495464 0.500624 L0.47 81.97
								 a0.492183 0.500624 0 0 1 -0.469214 -0.523987 C0.23 71.66 7.27 71.01 9.8 71.01 a0.492183 0.500624
								 -180 0 0 0.492183 -0.500624 L10.29 68.48 C10.29 67.99 10.57 67.87 10.91 68.2 L14.96 72.27 a0.515151
								 0.523987 0 0 1 0.0885929 0.0667499 ZM25.97 114.44 a0.51187 0.520649 0 0 1 3.90799E-14 -0.737586
								 L30.03 109.92 C30.39 109.58 30.69 109.7 30.69 110.2 L30.69 112.11 a0.495464 0.503962 -180 0 0 0.515151
								 0.480599 A5.87666 5.97745 -180 0 0 37.61 105.35 C37.61 105.35 37.61 105.32 37.61 105.31 a0.495464
								 0.503962 0 0 1 0.495464 -0.500624 L40.57 104.81 a0.492183 0.500624 0 0 1 0.469214 0.523987 C40.8
								 115.11 33.77 115.77 31.25 115.77 L31.22 115.77 a0.492183 0.500624 -180 0 0 -0.492183 0.500624 L30.73
								 118.29 C30.73 118.79 30.46 118.9 30.11 118.57 L26.05 114.51 a0.515151 0.523987 0 0 1 -0.0820305
								 -0.0667499 Z" class="st1"/>
				</g>
				<g id="shape316-5" transform="translate(0,-13.1698)">
					<title>Sheet.316</title>
					<path d="M0 117.91 a0.974545 0.991259 -180 0 0 0.974522 0.991236 L28.55 118.9 a0.974545 0.991259 -180 0 0 0.974522
								 -0.991236 L29.53 99.8 a0.974545 0.991259 -180 0 0 -0.974522 -0.991236 L0.97 98.81 a0.974545 0.991259
								 -180 0 0 -0.974522 0.991236 L0 117.91 Z" class="st2"/>
				</g>
				<g id="shape317-9" transform="translate(14.7786,-17.375)">
					<title>Sheet.317</title>
					<path d="M4.91 110.12 L4.91 115.96 L0 118.9 L0 113.05 L4.91 110.12 Z" class="st3"/>
				</g>
				<g id="shape318-11" transform="translate(9.84038,-23.219)">
					<title>Sheet.318</title>
					<path d="M9.84 115.96 L4.94 118.9 L0 115.96 L4.94 113.02 L9.84 115.96 Z" class="st4"/>
				</g>
				<g id="shape319-13" transform="translate(9.84038,-17.375)">
					<title>Sheet.319</title>
					<path d="M4.94 113.05 L4.94 118.9 L0 115.96 L0 110.12 L4.94 113.05 Z" class="st5"/>
				</g>
				<g id="shape320-15" transform="translate(9.84038,-17.375)">
					<title>Sheet.320</title>
					<path d="M0 115.96 L4.94 113.05 L4.94 118.9 L0 115.96 Z" class="st4"/>
				</g>
				<g id="shape321-17" transform="translate(14.7786,-17.375)">
					<title>Sheet.321</title>
					<path d="M4.91 115.96 L0 113.05 L0 118.9 L4.91 115.96 Z" class="st5"/>
				</g>
				<g id="shape322-19" transform="translate(7.38931,-5.4568)">
					<title>Sheet.322</title>
					<path d="M13.3 117.23 C10.38 116.75 10.28 114.6 10.28 111.15 L4.47 111.15 C4.47 114.57 4.47 116.75 1.44 117.23
								 A1.71608 1.74551 -180 0 0 0 118.9 L14.78 118.9 A1.71608 1.74551 -180 0 0 13.3 117.23 Z"
							class="st6"/>
				</g>
				<g id="shape323-23" transform="translate(22.1253,-25.9423)">
					<title>Sheet.323</title>
					<path d="M0 117.74 A1.14189 1.16148 -180 0 0 1.14 118.9 L33.43 118.9 A1.14189 1.16148 -180 0 0 34.57 117.74 L34.57
								 96.54 A1.14189 1.16148 -180 0 0 33.43 95.38 L1.14 95.38 A1.14189 1.16148 -180 0 0 0 96.54 L0 117.74
								 Z" class="st7"/>
				</g>
				<g id="shape324-27" transform="translate(39.4304,-30.8618)">
					<title>Sheet.324</title>
					<path d="M5.74 108.62 L5.74 115.46 L0 118.9 L0 112.06 L5.74 108.62 Z" class="st8"/>
				</g>
				<g id="shape325-29" transform="translate(33.6489,-37.7037)">
					<title>Sheet.325</title>
					<path d="M11.52 115.46 L5.78 118.9 L0 115.46 L5.78 112.02 L11.52 115.46 Z" class="st9"/>
				</g>
				<g id="shape326-31" transform="translate(33.6489,-30.8618)">
					<title>Sheet.326</title>
					<path d="M5.78 112.06 L5.78 118.9 L0 115.46 L0 108.62 L5.78 112.06 Z" class="st10"/>
				</g>
				<g id="shape327-33" transform="translate(33.6489,-30.8618)">
					<title>Sheet.327</title>
					<path d="M0 115.46 L5.78 112.06 L5.78 118.9 L0 115.46 Z" class="st9"/>
				</g>
				<g id="shape328-35" transform="translate(39.4304,-30.8618)">
					<title>Sheet.328</title>
					<path d="M5.74 115.46 L0 112.06 L0 118.9 L5.74 115.46 Z" class="st10"/>
				</g>
				<g id="shape329-37" transform="translate(30.7778,-16.9011)">
					<title>Sheet.329</title>
					<path d="M15.57 116.94 C12.15 116.38 12.03 113.86 12.03 109.82 L5.23 109.82 C5.23 113.82 5.23 116.38 1.69 116.94
								 A2.00483 2.03921 -180 0 0 -0 118.9 L17.3 118.9 A2.00811 2.04255 -180 0 0 15.57 116.94 Z"
							class="st11"/>
				</g>
			</g>
		</g>
	</g>
</svg>
